src/lib/packages/icons/src/assets/line/location-pin-search.svg

<svg width="24" height="24" viewBox="0 0 24 24" fill="none" xmlns="http://www.w3.org/2000/svg">
<path d="M12 2.25C7.175 2.25 3.25 6.175 3.25 11C3.25 16.118 7.94699 19.2199 11.055 21.2729L11.584 21.624C11.71 21.708 11.855 21.75 12 21.75C12.145 21.75 12.29 21.708 12.416 21.624L12.945 21.2729C16.053 19.2199 20.75 16.118 20.75 11C20.75 6.175 16.825 2.25 12 2.25ZM12.119 20.021L12 20.1001L11.881 20.021C8.87101 18.033 4.75 15.311 4.75 11C4.75 7.002 8.002 3.75 12 3.75C15.998 3.75 19.25 7.002 19.25 11C19.25 15.311 15.128 18.034 12.119 20.021ZM14.481 12.4199C14.859 11.8429 15.084 11.156 15.084 10.416C15.084 8.39502 13.439 6.74902 11.417 6.74902C9.39599 6.74902 7.75 8.39402 7.75 10.416C7.75 12.438 9.39499 14.083 11.417 14.083C12.157 14.083 12.844 13.859 13.421 13.48L14.97 15.0291C15.116 15.1751 15.308 15.249 15.5 15.249C15.692 15.249 15.884 15.1761 16.03 15.0291C16.323 14.7361 16.323 14.261 16.03 13.968L14.481 12.4199ZM9.25 10.417C9.25 9.22199 10.222 8.25 11.417 8.25C12.612 8.25 13.584 9.22199 13.584 10.417C13.584 11.612 12.612 12.584 11.417 12.584C10.222 12.584 9.25 11.611 9.25 10.417Z" fill="currentColor"/>
</svg>

<svg xmlns="http://www.w3.org/2000/svg" width="24" height="24" fill="none"><path fill="currentColor" d="M12 2.25c-4.825 0-8.75 3.925-8.75 8.75 0 5.118 4.697 8.22 7.805 10.273l.529.351a.75.75 0 0 0 .832 0l.529-.351C16.053 19.22 20.75 16.118 20.75 11c0-4.825-3.925-8.75-8.75-8.75Zm.119 17.771-.119.08-.119-.08C8.871 18.033 4.75 15.311 4.75 11c0-3.998 3.252-7.25 7.25-7.25s7.25 3.252 7.25 7.25c0 4.311-4.122 7.034-7.131 9.021Zm2.362-7.601a3.645 3.645 0 0 0 .603-2.004 3.672 3.672 0 0 0-3.667-3.667 3.672 3.672 0 0 0-3.667 3.667 3.671 3.671 0 0 0 3.667 3.667c.74 0 1.427-.224 2.004-.603l1.549 1.55a.748.748 0 0 0 1.06 0 .75.75 0 0 0 0-1.062l-1.549-1.548ZM9.25 10.417a2.17 2.17 0 0 1 2.167-2.167 2.17 2.17 0 0 1 2.167 2.167 2.17 2.17 0 0 1-2.167 2.167 2.17 2.17 0 0 1-2.167-2.167Z"/></svg>
